!!!!SEGMENT: pl-cz--i-37--001_jarecki-jozef--requiem-requiem.krn
!!!cenid: 18xx:846
!!!COM: Jarecki, Józef
!!!COM-rism: pe41001558
!!!CDT: 1818/08/02-1871/12/23
!!!CNT: Polish
!!!OTL: Requiem – Requiem
!!!PDT:
!!!AGN: Sacred; Requiem
!!!SMS-siglum: PL-CZ
!!!SMS-shelfmark: I-37
!!!NIFC-rismID: 300000525
!!!URL-scan: http://repozytorium.nifc.pl/skany/pl-cz-nut--i-37
!!!ONB-nifc: UWAGA: części Requiem: Requiem, Dies irae, Domine Jesu Christe, Sanctus, Benedictus, Agnus, Lux aeterna
!!!SMS-variant:
!!!SMS-altvar:
**kern	**kern	**kern	**text	**kern	**kern	**text
*part4	*part4	*part3	*part3	*part2	*part1	*part1
*staff5	*staff4	*staff3	*staff3	*staff2	*staff1	*staff1
*I"Organo	*	*I"Basso	*	*I"Tenore II	*I"Tenore I	*
*I'org	*	*	*	*	*	*
*clefF4	*clefG2	*clefF4	*	*clefG2	*clefG2	*
*k[b-]	*k[b-]	*k[b-]	*	*k[b-]	*k[b-]	*
*M4/4	*M4/4	*M4/4	*	*M4/4	*M4/4	*
=1	=1	=1	=1	=1	=1	=1
*^	*	*	*	*	*	*
!	!	!LO:SIC:o:s=:v:nazwa wpisana ze względów walidacji; w źródle nie ma ani nazwy, ani nazwy skróconej	!	!	!	!	!
!	!	!	!LO:SIC:o=:v:nazwa instrumentu zapisana prostopadle do pięciolinii	!	!LO:SIC:o=:v:nazwa instrumentu zapisana prostopadle do pięciolinii	!LO:SIC:o=:v:nazwa instrumentu zapisana prostopadle do pięciolinii	!
2F/	2F\	2c/ 2f/ 2a/	4.F\	.	4.f/	4.a/	Re-
.	.	.	8F\	.	8f/	8a/	-qui-
2D/	2D\	2d/ 2f/ 2a/	4D\	.	4f/	4a/	-em
.	.	.	4D\	.	4f/	4a/	ae-
=2	=2	=2	=2	=2	=2	=2	=2
2AA/	2AA\	2c#X/ 2e/ 2a/	2AA/	.	2e/	2a/	-ter-
2D/	2D\	2d/ 2f/ 2a/	2D/	.	2f/	2a/	-nam
=3	=3	=3	=3	=3	=3	=3	=3
*	*	*^	*	*	*	*	*
2G/	2GG\	2d/ 2g/ 2b-/	2ryy	4.G\	.	4.g/	4.b-/	do-
.	.	.	.	8G\	.	8g/	8b-/	-na
4A/	4AA\	4d/ 4f/ 4a/	4ryy	4A\	.	4a/	4a/	e-
4B-/	4BB-\	4g#X/	8f\L	4B-\	.	4g#X/	4g#X/	-is
.	.	.	8d\J	.	.	.	.	.
*v	*v	*	*	*	*	*	*	*
*	*v	*v	*	*	*	*	*
=4	=4	=4	=4	=4	=4	=4
!	!	!LO:N:vis=8.	!	!	!	!
4AA\ 4A\	4c#X/ 4e/ 4a/	4.A\	.	8.a/	8.a/	Do-
.	.	.	.	16a/	16a/	-mi-
16A\LL	16a\LL	.	.	4a/	4a/	-ne
16c#X\	16cc#X\	.	.	.	.	.
16e\	16ee\	8A\	.	.	.	.
16c#\JJ	16cc#\JJ	.	.	.	.	.
4A\	4cc#/	4A\	.	4r	4r	.
4G\	4e/ 4a/ 4cc#/	4G\	.	4a/	4cc#X\	et
=5	=5	=5	=5	=5	=5	=5
*^	*	*	*	*	*	*
4F/	4F\	4d\ 4a\ 4dd\	4F\	.	4a/	4dd\	lux
16d\LL	4ryy	16dd\LL	4r	.	4r	4r	.
16f\	.	16ff\	.	.	.	.	.
16a\	.	16aa\	.	.	.	.	.
16f\JJ	.	16ff\JJ	.	.	.	.	.
4d\	2ryy	4dd\	4r	.	4r	4r	.
4d\	.	4f\ 4a\ 4dd\	4D/	.	4a/	4dd\	et
*v	*v	*	*	*	*	*	*
=6	=6	=6	=6	=6	=6	=6
4AA\ 4A\	4a\ 4cc#X\ 4ee\	4A\	.	4cc#X\	4ee\	lux
16A\LL	16a\LL	4r	.	4r	4r	.
!	!LO:SIC:s=16c#	!	!	!	!	!
16c\	16cc#\	.	.	.	.	.
16e\	16ee\	.	.	.	.	.
!	!LO:SIC:s=16c#	!	!	!	!	!
16c\JJ	16cc#\JJ	.	.	.	.	.
4A\	4a/	4r	.	4r	4r	.
4AA\ 4A\	4a\ 4cc#\ 4ee\	4A\	.	4cc#\	4ee\	et
=7	=7	=7	=7	=7	=7	=7
2D\ 2d\	2a\ 2dd\ 2ff\	4d\	.	4dd\	4ff\	lux
.	.	4d\	.	4dd\	4ff\	per-
2C\ 2cn\	2ccn\ 2ee\ 2gg\	4c\	.	4ee\	4gg\	-pe-
.	.	8c\	.	8ee\	8gg\	-tu-
.	.	8c\	.	8ee\	8gg\	-a
=8	=8	=8	=8	=8	=8	=8
*tremolo	*	*	*	*	*	*
8F\L	2cc\ 2ff\ 2aa\	2F\	.	2cc\	2aa\	lu-
8F\	.	.	.	.	.	.
8F\	.	.	.	.	.	.
8F\J	.	.	.	.	.	.
8A\L	2f\ 2cc\ 2ff\	4A\	.	4cc\	4ff\	-ce-
8A\	.	.	.	.	.	.
8A\	.	4A\	.	4cc\	4ff\	-at
8A\J	.	.	.	.	.	.
=9	=9	=9	=9	=9	=9	=9
8BB-\ 8B-\L	2b-\ 2dd\ 2ff\	2B-\	.	2dd\	2ff\	lu-
8BB-\ 8B-\	.	.	.	.	.	.
8BB-\ 8B-\	.	.	.	.	.	.
8BB-\ 8B-\J	.	.	.	.	.	.
8BB-\ 8B-\L	4f/ 4b-/ 4dd/	4BB-/	.	4b-\	4dd\	-ce-
8BB-\ 8B-\	.	.	.	.	.	.
8BB-\ 8B-\	4d/ 4g/ 4b-/	4BB-/	.	4g/	4b-\	-at
8BB-\ 8B-\J	.	.	.	.	.	.
=10	=10	=10	=10	=10	=10	=10
8C/L	2c/ 2f/ 2a/	1C/	.	(2f/	(2a/	e-
8C/	.	.	.	.	.	.
8C/	.	.	.	.	.	.
8C/J	.	.	.	.	.	.
8C\ 8c\L	2c/ 2e/ 2g/	.	.	2e/)	2g/)	.
8C\ 8c\	.	.	.	.	.	.
8C\ 8c\	.	.	.	.	.	.
8C\ 8c\J	.	.	.	.	.	.
*Xtremolo	*	*	*	*	*	*
=11	=11	=11	=11	=11	=11	=11
4F\	4A/ 4c/ 4f/	4F\	.	4f/	4f/	-is
4F\	4c/ 4a/	4r	.	4r	4r	.
4E\	4c/ 4g/	2r	.	2r	2r	.
4D\	4d/ 4g/ 4bn/	.	.	.	.	.
!!LO:LB:g=original
=12	=12	=12	=12	=12	=12	=12
*^	*	*	*	*^	*	*
4C/	4C\	4e/ 4g/ 4cc/	1r	.	4r	4ryy	4r	.
!	!	!	!	!	!	!	!LO:TX:a:t=c	!
4e/	4r	4g/ 4cc/	.	.	4g/	4e\	4cc\	Te
4e/	2r	4g/ 4cc/	.	.	4g/	4e\	4cc\	de-
4e/	.	4g/ 4cc/	.	.	4g/	4e\	4cc\	-cet
=13	=13	=13	=13	=13	=13	=13	=13	=13
4f/	4r	4g/ 4bn/	4r	.	4g/	4f\	4bn\	hym-
8e/	8r	8g/ 8cc/	8r	.	4g/	4e\	4cc\	-nus
8ryy	8C\	8r	8C/	Te	.	.	.	.
2r	4C\	2r	4C/	de-	2r	2ryy	2r	.
.	4C\	.	4C/	-cet	.	.	.	.
=14	=14	=14	=14	=14	=14	=14	=14	=14
4ryy	4C\	4r	4C/	hym-	4r	4ryy	4r	.
8ryy	8C\	8r	8C/	-nus	8r	8ryy	8r	.
8e/	8r	8g/ 8cc/	8r	.	8g/	8e\	8cc\	De-
4e/	2r	4g/ 4cc/	2r	.	4g/	4e\	4cc\	-us
4e/	.	4g/ 4cc/	.	.	4g/	4e\	4cc\	in
=15	=15	=15	=15	=15	=15	=15	=15	=15
*	*	*^	*	*	*	*	*	*
8g/L	1r	8ee/L	4g\	1r	.	8g/L	4ryy	(8ee\L	Si-
8f/J	.	8dd/J	.	.	.	8f/J	.	8dd\J)	.
8e/	.	4cc/	4g\	.	.	4g/	4e\	4cc\	-on
8r	.	.	.	.	.	.	.	.	.
2r	.	8r	2ryy	.	.	2r	2ryy	2r	.
.	.	8g\L	.	.	.	.	.	.	.
.	.	8cc\	.	.	.	.	.	.	.
.	.	8cc\J 8ee\	.	.	.	.	.	.	.
*v	*v	*	*	*	*	*	*	*	*
*	*v	*v	*	*	*	*	*	*
=16	=16	=16	=16	=16	=16	=16	=16
2.G\	1bn\ 1dd\ 1ff\	2G\	.	2dd/	2bn\	2ff\	et
.	.	4G\	.	4dd/	4b\	4ff\	ti-
!	!	!	!	!LO:N:vis=4	!	!	!
4G#X\	.	8G#X\	.	8dd/	8b\	8ff\	-bi
!	!	!	!	!LO:N:vis=4	!	!	!
.	.	8G#\	.	8dd/	8b\	8ff\	red-
=17	=17	=17	=17	=17	=17	=17	=17
*	*^	*	*	*	*	*	*
2AA\ 2A\	2cc\ 2ee\	2ryy	4A\	.	4cc/	4cc\	4ee\	-de-
.	.	.	(4A\	.	4cc/	4cc\	4ee\	-tur
4F\	4dd/	4a\ 4cc\	4F\)	.	4cc/	4a\	4dd\	vo-
8E\L	8cc#X/L 8ee/	4a\	8E\L	.	8cc#X/L	4a\	(8ee\L	-tum
8D\J	8dd/J 8ff/	.	8D\J	.	8dd/J	.	8ff\J)	.
*	*v	*v	*	*	*v	*v	*	*
=18	=18	=18	=18	=18	=18	=18
1GG/ 1G/	2g\ 2cc\ 2ee\	4G\	.	4cc\	4ee\	in
.	.	4G\	.	4cc\	4ee\	Je-
.	2f/ 2g/ 2bn/ 2dd/	4G\	.	4bn\	4dd\	-ru-
.	.	4GG/ 4G/	.	4b\	4dd\	-sa-
=19	=19	=19	=19	=19	=19	=19
4C\	4e/ 4g/ 4cc/	4C/	.	4cc\	4cc\	-lem
4C\ 4c\	4cc/	4C/	.	4cc\	4cc\	ex-
4C\ 4c\	4cc/	4C/	.	4cc\	4cc\	-au-
4C\ 4c\	4cc/	8C/	.	8cc\	8cc\	-di
.	.	8C/	.	8cc\	8cc\	o-
=20	=20	=20	=20	=20	=20	=20
*	*	*	*	*^	*	*
*	*tremolo	*	*	*	*	*	*
1C\ 1c\	8b-/ 8cc/ 8ee/L	4C/	.	4b-/	4g\	4ee\	-ra-
.	8g/	.	.	.	.	.	.
.	8b-/ 8cc/ 8ee/	4C/	.	4b-/	4g\	4ee\	-ti-
.	8g/J	.	.	.	.	.	.
*	*rep	*	*	*	*	*	*
.	8b-/ 8cc/ 8ee/L	4C/	.	4b-/	4g\	4ee\	-o-
.	8g/	.	.	.	.	.	.
.	8b-/ 8cc/ 8ee/	4C/	.	4b-/	4g\	4ee\	-nem
.	8g/J	.	.	.	.	.	.
*	*Xrep	*	*	*	*	*	*
*	*Xtremolo	*	*	*	*	*	*
=21	=21	=21	=21	=21	=21	=21	=21
4FF/ 4F/	4a\ 4cc\ 4ff\	4F\	.	4cc/	4a\	4ff\	me-
4FF/ 4F/	4a\ 4cc\ 4ff\	4F\	.	4cc/	4a\	4ff\	-am
4r	4r	4r	.	4r	4r	4r	.
4AA\ 4A\	4a\ 4cc\ 4ff\	8AA/	.	8cc/	8a\L	8ff\	ad
.	.	8AA/	.	8cc/	8a\J	8ff\	Te
!!LO:LB:g=original
=22	=22	=22	=22	=22	=22	=22	=22
2BB-\ 2B-\	2f/ 2b-/ 2dd/	4BB-/	.	4b-/	4f\	4dd\	om-
.	.	4BB-/	.	4b-/	4f\	4dd\	-nis
2C\ 2c\	2f/ 2a/ 2cc/	4r	.	4r	4ryy	4r	.
.	.	8C/	.	8a/	8f\L	8cc\	ad
.	.	8C/	.	8a/	8f\J	8cc\	Te
=23	=23	=23	=23	=23	=23	=23	=23
1C#X\ 1c#X\	((2f/ 2g#X/ 2bn/	4C#X/	.	4g#X/	4f\	4bn/	om-
.	.	4C#/	.	4g#/	4f\	4b/	-nis
.	2f/)) 2g#/ 2b/	4C#/	.	4g#/	4f\	4b/	ca-
.	.	4C#/	.	4g#/	4f\	4b/	-ro
*	*	*	*	*v	*v	*	*
=24	=24	=24	=24	=24	=24	=24
1Cn\ 1cn\	2f/ 2a/ 2cc/	[1Cn/	.	2a/	(2cc/	ve-
.	2f/ 2a/	.	.	2f/	2a/	.
=25	=25	=25	=25	=25	=25	=25
*	*^	*	*	*	*	*
1C\ 1c\	2g/	4f\	2.C/]	.	4f/	2.g/)	.
.	.	8e\L	.	.	8e/L	.	.
.	.	8d\J	.	.	8d/J	.	.
.	4e/	4e\	.	.	4e/	.	.
.	4e/ 4g/	8c\L	4C/	ni-	4e/	4g/	-ni-
.	.	8B-\J	.	.	.	.	.
*	*v	*v	*	*	*	*	*
=26	=26	=26	=26	=26	=26	=26
4FF/ 4F/	4A/ 4c/ 4f/	4F\	-et	4f/	4f/	-et
4FF/ 4F/	4r	8F\	Ky-	4r	4r	.
.	.	8F\	-ri-	.	.	.
!	!LO:SIC:o:s=:v:ciągłość strony przerwana, transkrypcja niepewna	!	!	!	!	!
4FF/ 4F/	2r	4F\	-e	2r	2r	.
4FF/ 4F/	.	4F\	e-	.	.	.
=27	=27	=27	=27	=27	=27	=27
1FF/ 1F/	4r	2F\	-lej-	4r	4r	.
.	2.f/ 2.a/	.	.	4f/	4a/	Chris-
.	.	2F\	-son	4f/	4a/	-te
.	.	.	.	4f/	4a/	e-
=28	=28	=28	=28	=28	=28	=28
!	!LO:SIC:o:s=:v:miejsce nieczytelne	!	!	!	!	!
2ryy	2d/ 2f/ 2a/	4r	.	4f/	4a/	-lej-
.	.	8D/	Ky-	4f/	4a/	-son
.	.	8D/	-ri-	.	.	.
4D\	2r	4D/	-e	2r	2r	.
4D\	.	4D/	e-	.	.	.
=29	=29	=29	=29	=29	=29	=29
1DD/ 1D/	4r	4D\	-lej-	4r	4r	.
.	2.d/ 2.f/ 2.a/	2D\	-son	8f/	8a/	Ky-
.	.	.	.	8f/	8a/	-ri-
.	.	.	.	4f/	4a/	-e
.	.	4D\	e	4f/	4a/	e-
=30	=30	=30	=30	=30	=30	=30
*	*	*	*	*^	*	*
2BB-/	2d/ 2f/ 2g/	4D\	.	4g/	4f\	4b-/	-lej-
.	.	4D\	.	4g/	4f\	4b-/	-son
2C/	2r	2r	.	2r	2ryy	2r	.
*	*	*	*	*v	*v	*	*
=31	=31	=31	=31	=31	=31	=31
1CC/ 1C/	1c/ 1f/ 1a/	4.C/	.	4.f/	4.a/	Ky-
.	.	8C/	.	8f/	8a/	-ri-
.	.	4C/	.	4f/	4a/	-e
.	.	4C/	.	4f/	4a/	e-
=32	=32	=32	=32	=32	=32	=32
*	*^	*	*	*	*	*
1CC/ 1C/	2f/ 2a/	1c\	1C/	.	(2f/	(2a/	-lej-
.	2e/ 2g/	.	.	.	2e/)	2g/)	.
*	*v	*v	*	*	*	*	*
=33	=33	=33	=33	=33	=33	=33
1FF/ 1F/	1f/	4F\	.	4f/	4f;/	-son
.	.	4r	.	4r	4r	.
.	.	2r	.	2r	2r	.
=34	=34	=34	=34	=34	=34	=34
1ryy	1ryy	1r	.	1r	1r	.
==	==	==	==	==	==	==
*-	*-	*-	*-	*-	*-	*-
!!!system-decoration: s1,s2,s3{(s4,s5)}
!!!RDF**kern: > = above
!!!RDF**kern: < = below
!!!ENC:Kamil Watkowski
!!!END:2020-07-21
!!!EED: Leszek Kubiak
!!!EST: 2020-09-24
